X: 100205
T: Johnny Leary's
S: De Danann
Z: B.Black
R: polka
M: 2/4
L: 1/8
K: D
B/c/ | f2 ge | f2 ge | fd ed | e/f/e/d/ BA |
f2 ge | f2 ge | fd e/f/e/c/ | df d :|
B |: AF AB | Af af | ef/e/ ef/e/ | dA B/c/d/B/ |
AF AB | Af af | ef gb | ef/e/ dB :|
